X:440
T:Dundee Hornpipe
M:2/4
L:1/16
Z:abc by Bruce Osborne - bosborne@kos.net
K:D
FG|AFDF AFdB|AdFA fedc|BdGd gefd|ecdB A2FG|!
AFDF AFdB|AdFA fedc|BdGd gefd|ecAc d2:|!
|:de|fdcd BdAd|FAde fdcd|eAfA gAfA|ecdB A2de|!
fdcd BdAd|FAde fdcd|eAfA gAfA|ecAc d2:|!
|:
